!!!COM: Bach, Johann Sebastian
!!!CDT: 1685/3//-1750/7/28/
!!!OTL@@DE: Komm, heiliger Geist, Herre Gott
!!!AGN: 4-Part Chorale
!!!SCT: BH 069
!!!SCT: BWV 226
!!!ONB: Transposed down a minor third from original BWV 226 chorale.
**harm	**root	**kern	**kern	**kern	**kern
!	!	!bass	!tenor	!alto	!soprno
*	*Iorgan	*Iorgan	*Iorgan	*Iorgan	*Iorgan
*	*	*clefF4	*clefF4	*clefG2	*clefG2
*M4/4	*M4/4	*M4/4	*M4/4	*M4/4	*M4/4
*met(c)	*met(c)	*met(c)	*met(c)	*met(c)	*met(c)
*MM60	*MM60	*MM60	*MM60	*MM60	*MM60
*k[b-]	*k[b-]	*k[b-]	*k[b-]	*k[b-]	*k[b-]
*F:	*F:	*F:	*F:	*F:	*F:
I	4GG	4F	4A	4f	4cc
=1	=1	=1	=1	=1	=1
IV	4CC	4BB-	8B-	4f	4dd
.	.	.	8A	.	.
V	4DD	4C	4G	4e	8cc
.	.	.	.	.	8b-
vi	4EE	4D	4F	4f	8a
.	.	.	.	.	8b-
Ib	4GG	8AA	4F	8c	4cc
.	.	8BB-	.	8d	.
=2	=2	=2	=2	=2	=2
V;	2DD;	2C;	2c;	2e;	2g;
I	4GG	8F	4c	4f	4a
.	.	8E	.	.	.
viib/V	4CC#	4D	4F	4f	4b
=3	=3	=3	=3	=3	=3
V;	2DD;	2C;	2G;	2e;	2cc;
r	4r	4r	4r	4r	4r
Ib	4GG	4AA	4F	4f	4cc
=4	=4	=4	=4	=4	=4
IV	4CC	4BB-	8B-	4f	4dd
.	.	.	8A	.	.
V	4DD	4C	8G	8e	4cc
.	.	.	8F	8d	.
V7d	8DD	8BB-	8E	4c	8g
Ib	8GG	8AA	8F	.	8a
ii	4AA	4GG	4BB-	8d	4b-
.	.	.	.	8e	.
=5	=5	=5	=5	=5	=5
Ib	4GG	8AA	4C	4f	4a
.	.	8BB-	.	.	.
V	4DD	4C	8c	4e	4g
.	.	.	8B-	.	.
I;	4GG;	4FF;	4A;	4c;	4f;
I	4GG	4F	4A	4c	4f
=6	=6	=6	=6	=6	=6
Vb	4DD	4E	4G	4c	8g
.	.	.	.	.	8a
IVb	4CC	8D	8F	4d	4b-
.	.	8E	8G	.	.
I	4GG	4F	4A	8c	8a
.	.	.	.	8d	8b-
Vb	4DD	8E	8G	[4e	[4cc
.	.	8D	8F	.	.
!!linebreak: 4
=7	=7	=7	=7	=7	=7
Vb	4DD	8E	4G	8e]	4cc]
.	.	8D	.	8f	.
V	4DD	8C	4c	8e	4g
.	.	8BB	.	8d	.
Ib	4GG	8AA	4c	8c	8f
.	.	8FF	.	8A	8e
V/V	4AA	4GG	8G	4B	4d
.	.	.	8F	.	.
=8	=8	=8	=8	=8	=8
V;	2DD;	2C;	2E;	2G;	2c;
r	4r	4r	4r	4r	4r
V	4DD	8C	4E	4G	4c
.	.	8BB-	.	.	.
=9	=9	=9	=9	=9	=9
Ib	8GG	8AA	4F	8c	4f
IV	8CC	8BB-	.	8d	.
viib	4FF#	8AA	4B-	4e	4g
.	.	8GG	.	.	.
I	4GG	4FF	8c	4.f	8a
.	.	.	8B-	.	8b-
I	8GG	8F	8A	.	[4cc
vb	8DD	8E-	8G	8g	.
=10	=10	=10	=10	=10	=10
V7/ii	4EE	4D	8F#	4.a	4cc]
.	.	.	8Ey	.	.
ii	4AA	4GG	4D	.	4b-
.	.	.	.	8g	.
V/vi	4BB	4AA	4C#	8f	4a
.	.	.	.	8e	.
iib	4AA	4BB-	4D	4d	4g
=11	=11	=11	=11	=11	=11
V/vi;	2BB;	2AA;	2E;	2c#;	2a;
r	4r	4r	4r	4r	4r
vi	4EE	4D	8F	4f	8a
.	.	.	8G	.	8b-
=12	=12	=12	=12	=12	=12
viib/V/V	4GG#	4A	4A	8e	4cc
.	.	.	.	8f#	.
V/V	4AA	8G	4B	4g	4dd
.	.	8F	.	.	.
Vb	4DD	8E	4.c	8g	4cc
.	.	8D	.	8f	.
V	4DD	4C	.	8e	4g
.	.	.	8B-	8d	.
!!linebreak: 4
=13	=13	=13	=13	=13	=13
I	4GG	8F	8A	4c	4a
.	.	8E	8G	.	.
viib/V	4CC#	4D	4F	4d	4b
V;	4DD;	4C;	4G;	4e;	4cc;
I	4GG	4F	4A	8f	4cc
.	.	.	.	8e	.
=14	=14	=14	=14	=14	=14
IV	4CC	4BB-	4B-	8d	4dd
.	.	.	.	8e	.
Ib	4GG	8AA	4c	4f	4cc
.	.	8BB-	.	.	.
V	4DD	4C	4c	4e	8g
.	.	.	.	.	8a
IVb	4CC	8D	8F	4d	4b-
.	.	8E	8G	.	.
=15	=15	=15	=15	=15	=15
I	8GG	8F	8A	8c	4a
IV7	8CC	8BB-	8F	8d	.
V	4DD	4C	8c	4e	4g
.	.	.	8B-	.	.
I;	4GG;	4FF;	4A;	4c;	4f;
IV	4CC	8BB-	4B-	4d	4f
.	.	8AA	.	.	.
=16	=16	=16	=16	=16	=16
ii	4AA	4GG	8B-	4d	8g
.	.	.	8A	.	8a
ii	4AA	4G	4G	8d	4b-
.	.	.	.	8e	.
vi	4EE	4D	8A	[2f	8a
.	.	.	8G	.	8b-
Ib	4GG	8AA	8F	.	[4cc
.	.	8BB-	8G	.	.
=17	=17	=17	=17	=17	=17
I	4GG	8C	8A	4f]	4cc]
.	.	8D	8B	.	.
Vb	4DD	8E	2c	4e	4g
.	.	8C	.	.	.
Ib	4GG	8A	.	8f	8f
.	.	8F	.	[8c	8e
V/V	4AA	4G	8G	8c]	4d
.	.	.	8F	8B	.
=18	=18	=18	=18	=18	=18
V;	2DD;	2C;	2E;	2G;	2c;
r	4r	4r	4r	4r	4r
iii	4BB	4AA	4E	8c	4c
.	.	.	.	8B-	.
!!linebreak: 4
=19	=19	=19	=19	=19	=19
vi	8EE	4D	8F	8A	4f
IVb	8CC	.	8B-	8d	.
Vb	4DD	4E	8A	8c	4g
.	.	.	8G	8B-	.
I	2GG	8F	4.F	4.A	8a
.	.	8G	.	.	8b-
.	.	8A	.	.	[4cc
.	.	8G	8G	16B-	.
.	.	.	.	16c	.
=20	=20	=20	=20	=20	=20
V7b/ii	4EE	8F#	4.A	4d	4cc]
.	.	8D	.	.	.
ii	4AA	4G	.	4d	4b-
.	.	.	8G	.	.
vi	4EE	8D	8F	4d	4a
.	.	8C	8E	.	.
iib	4AA	8BB-	4D	8d	4g
.	.	8AA	.	8c	.
=21	=21	=21	=21	=21	=21
ii7b	4AA	8BB-	2G	2B-	4d
.	.	8GG	.	.	.
V7	4DD	4C	.	.	4e
I;	4GG;	4FF;	4F;	4A;	4f;
V	4DD	4C	4E	4c	4g
=22	=22	=22	=22	=22	=22
I	4GG	8FF	2.F	[2c	4a
.	.	8GG	.	.	.
Ib	4GG	4AA	.	.	4f
IV	2CC	2BB-	.	8c]	2d
.	.	.	.	8A	.
.	.	.	8F	4B-	.
.	.	.	8E	.	.
=23	=23	=23	=23	=23	=23
I;	4GG;	4F;	4F;	4A;	4c;
Vb	4DD	4E	2G	2c	8g
.	.	.	.	.	16a
.	.	.	.	.	16b-
I	4GG	8F	.	.	2a
.	.	8E	.	.	.
vi	4EE	8D	[4F	[4d	.
.	.	8C	.	.	.
=24	=24	=24	=24	=24	=24
ii7b	4AA	8BB-	4F]	4d]	2g
.	.	8GG	.	.	.
V	4DD	4C	16E	8c	.
.	.	.	16D	.	.
.	.	.	8E	8B-	.
I;	4GG;	4FF;	4C;	4A;	4f;
====	====	====	====	====	====
*-	*-	*-	*-	*-	*-
!!chor2scor: -l 4 -s 0.6 -o %b.pmx
!!!ONB1: changed line measure 6, beat 2: vi chord to a IVb chord, since 
!!!ONB2: there is no B and the C is not dissonant and does not resolve.
!!!ONB3: Now m.6, b.2 matches the analysis of m.14, b.4.
!!!YEC: Copyright 1994, David Huron
!!!YEC: Changes/Additions 2001 by Craig Stuart Sapp
!!!YEN: United States of America
!!!SMA: 371 Bach Chorales, edited by Ludwig Erk, C.F. Peters
!!!PDT: 1850, 1865
